X: 638
T: Xiaoguafu shangfen
%%abc-version 2.0
%%abcx-abcm2ps-target-version 5.9.1 (29 Sep 2008)
%%abc-creator hum2abc beta
%%abcx-conversion-date 2013/10/02 07:52:30
%%abc-edited-by Helmut Schaffrath
%%humdrum-veritas 3850047653
%%humdrum-veritas-data 1487761374
%%continueall 1
%%barnumbers 0
L: 1/16
M: 2/4
K: A
E2 c2 B2 A F [I:setbarnb 1]| 
A E2 ^DE4 | 
E2 c2 B2 A F | 
A E2 ^DE4 | 
E2 A2 B c B A | 
A2 G2 F z E C | 
B, C E2 E2 C2 | 
E2 B, CA,4 |]  



